X:461
T: "Weihelied "
N: Z1141
O: Europa, Mitteleuropa, Deutschland
R: Vaterland und Wehr
M: 3/2
L: 1/8
K: F
cABGF4C4 | F2G2A4F4 |
A2B2c4d4 | c2B2B4A4 |
c3AF4f4 | d3cB3AG3A |
B2G2c3BA2G2 | F2G2A2B2c2d2 | c8e4 | f4z8

@@@ Tune index: 10219
